assets/web/icons/verified.svg

<svg width="24" height="24" viewBox="0 0 24 24" fill="none" xmlns="http://www.w3.org/2000/svg">
<path d="M8.14995 21.7501L6.69995 19.3001L3.94995 18.7001C3.69995 18.6501 3.49995 18.521 3.34995 18.3126C3.19995 18.1043 3.14162 17.8751 3.17495 17.6251L3.44995 14.8001L1.57495 12.6501C1.40828 12.4668 1.32495 12.2501 1.32495 12.0001C1.32495 11.7501 1.40828 11.5335 1.57495 11.3501L3.44995 9.20012L3.17495 6.37512C3.14162 6.12512 3.19995 5.89595 3.34995 5.68762C3.49995 5.47929 3.69995 5.35012 3.94995 5.30012L6.69995 4.70012L8.14995 2.25012C8.28328 2.03345 8.46662 1.88762 8.69995 1.81262C8.93328 1.73762 9.16662 1.75012 9.39995 1.85012L12 2.95012L14.6 1.85012C14.8333 1.75012 15.0666 1.73762 15.3 1.81262C15.5333 1.88762 15.7166 2.03345 15.85 2.25012L17.3 4.70012L20.05 5.30012C20.3 5.35012 20.5 5.47929 20.65 5.68762C20.8 5.89595 20.8583 6.12512 20.825 6.37512L20.55 9.20012L22.425 11.3501C22.5916 11.5335 22.675 11.7501 22.675 12.0001C22.675 12.2501 22.5916 12.4668 22.425 12.6501L20.55 14.8001L20.825 17.6251C20.8583 17.8751 20.8 18.1043 20.65 18.3126C20.5 18.521 20.3 18.6501 20.05 18.7001L17.3 19.3001L15.85 21.7501C15.7166 21.9668 15.5333 22.1126 15.3 22.1876C15.0666 22.2626 14.8333 22.2501 14.6 22.1501L12 21.0501L9.39995 22.1501C9.16662 22.2501 8.93328 22.2626 8.69995 22.1876C8.46662 22.1126 8.28328 21.9668 8.14995 21.7501ZM10.95 12.7001L9.49995 11.2751C9.31662 11.0918 9.08745 11.0001 8.81245 11.0001C8.53745 11.0001 8.29995 11.1001 8.09995 11.3001C7.91662 11.4835 7.82495 11.7168 7.82495 12.0001C7.82495 12.2835 7.91662 12.5168 8.09995 12.7001L10.25 14.8501C10.45 15.0501 10.6833 15.1501 10.95 15.1501C11.2166 15.1501 11.45 15.0501 11.65 14.8501L15.9 10.6001C16.1 10.4001 16.1958 10.1668 16.1875 9.90012C16.1791 9.63345 16.0833 9.40012 15.9 9.20012C15.7 9.00012 15.4625 8.89595 15.1875 8.88762C14.9125 8.87929 14.675 8.97512 14.475 9.17512L10.95 12.7001Z" fill="#007A61"/>
</svg>

<svg xmlns="http://www.w3.org/2000/svg" width="24" height="24" fill="currentColor" viewBox="0 0 24 24">
  <path d="M8.15 21.75 6.7 19.3l-2.75-.6a.943.943 0 0 1-.6-.387.928.928 0 0 1-.175-.688L3.45 14.8l-1.875-2.15a.934.934 0 0 1-.25-.65c0-.25.084-.467.25-.65L3.45 9.2l-.275-2.825a.928.928 0 0 1 .175-.688.943.943 0 0 1 .6-.387l2.75-.6 1.45-2.45a.983.983 0 0 1 .55-.438.97.97 0 0 1 .7.038l2.6 1.1 2.6-1.1a.97.97 0 0 1 .7-.038.983.983 0 0 1 .55.438L17.3 4.7l2.75.6c.25.05.45.18.6.388.15.208.209.437.175.687L20.55 9.2l1.875 2.15c.167.183.25.4.25.65s-.083.467-.25.65L20.55 14.8l.275 2.825a.928.928 0 0 1-.175.688.943.943 0 0 1-.6.387l-2.75.6-1.45 2.45a.983.983 0 0 1-.55.438.97.97 0 0 1-.7-.038l-2.6-1.1-2.6 1.1a.97.97 0 0 1-.7.038.983.983 0 0 1-.55-.438Zm2.8-9.05L9.5 11.275A.933.933 0 0 0 8.813 11c-.275 0-.513.1-.713.3a.948.948 0 0 0-.275.7.95.95 0 0 0 .275.7l2.15 2.15c.2.2.434.3.7.3.267 0 .5-.1.7-.3l4.25-4.25c.2-.2.296-.433.288-.7a1.055 1.055 0 0 0-.288-.7 1.02 1.02 0 0 0-.712-.313.93.93 0 0 0-.713.288L10.95 12.7Z"/>
</svg>
